X:1
T: Carol Palmer of Houston
C:
R:Strathspey
Q: 128
K:A
M:4/4
L:1/16
|:E2|A,4 CE3 A,3E CE3|A,3C E3G A3G A3B|c3e dcBA FA3 A3F|E3C DCB,A, B,4 B,C3|
A,4 CE3 A,3E CE3|A,3C E3G A3G A3B|c3e dcBA FA3 A3F|E3C DCB,A, B,4 B,2f2|
e3A dcBA dF3 F3A|E3A C3A E2A2 c2f2|e3A dcBA dF3 F3A|E3F FEDC B,4 B,2f2|
e3A dcBA dF3 F3A|E3A C3A E2A2 c2f2|e2fg a3g fedc dcBA|1B3c dcBA F4 FA3:|2BAGF E3D CA,3 A,2:|
